X: 305807
M: 2/4
L: 1/16
K: C
g4 c'geg | gfaf d4 | fedc BcdB | dcec GGce |\
g4 c'geg | gfaf d4 | fedc BcdB | c2c2 "^D.C."c4 |]
gc~c2 ec~c2 | fadf ecc2 | gcc2 Gcc2 | dfed c2c2 ::\


